X: 269
T:Staten Island Hornpipe
R:Hornpipe
M:C|
Z:Lesl Harker
S:Mighty Mike (Rafferty)
L:1/8
K:Dmix %(I think? - the c's are natural except where sharped)
|:AG|FDFG A2AB|cded cA~A2|BBGB AAFA|GGE2 E2AG|
FDFG A2AB| cded cA~A2|d2^cd efge|1 f2d^c d2:|2 f2d^c defg||
|:aafa ggeg|f2df ecBA|d2d2 efed|cAcd efge|
aafa g2eg|f2df edcA|d2d2 efge|1 f2d^c d2fg:|2 f2d2 d4||

